dist/img/edit.svg

<svg width="23" height="23" viewBox="0 0 23 23" fill="none" xmlns="http://www.w3.org/2000/svg">
<g clip-path="url(#clip0_60_1627)">
<g filter="url(#filter0_d_60_1627)">
<path d="M19.0469 7.09167L15.9563 4.00104L17.9688 1.96458L21.0834 5.05521L19.0469 7.09167ZM2.85107 20.1969V17.1062L14.95 5.00729L18.0407 8.09792L5.9417 20.1969H2.85107Z" fill="white"/>
</g>
</g>
<defs>
<filter id="filter0_d_60_1627" x="0.851074" y="0.964584" width="22.2322" height="22.2323" filterUnits="userSpaceOnUse" color-interpolation-filters="sRGB">
<feFlood flood-opacity="0" result="BackgroundImageFix"/>
<feColorMatrix in="SourceAlpha" type="matrix" values="0 0 0 0 0 0 0 0 0 0 0 0 0 0 0 0 0 0 127 0" result="hardAlpha"/>
<feOffset dy="1"/>
<feGaussianBlur stdDeviation="1"/>
<feComposite in2="hardAlpha" operator="out"/>
<feColorMatrix type="matrix" values="0 0 0 0 0 0 0 0 0 0.76 0 0 0 0 1 0 0 0 0.7 0"/>
<feBlend mode="normal" in2="BackgroundImageFix" result="effect1_dropShadow_60_1627"/>
<feBlend mode="normal" in="SourceGraphic" in2="effect1_dropShadow_60_1627" result="shape"/>
</filter>
<clipPath id="clip0_60_1627">
<rect width="23" height="23" fill="white"/>
</clipPath>
</defs>
</svg>

<svg width="23" height="23" fill="none" xmlns="http://www.w3.org/2000/svg"><g filter="url(#a)" clip-path="url(#b)"><path d="M19.047 7.092 15.957 4l2.012-2.036 3.114 3.09-2.036 2.037ZM2.85 20.197v-3.09l12.099-12.1 3.09 3.09-12.098 12.1h-3.09Z" fill="#fff"/></g><defs><clipPath id="b"><path fill="#fff" d="M0 0h23v23H0z"/></clipPath><filter id="a" x=".851" y=".965" width="22.232" height="22.232" filterUnits="userSpaceOnUse" color-interpolation-filters="sRGB"><feFlood flood-opacity="0" result="BackgroundImageFix"/><feColorMatrix in="SourceAlpha" values="0 0 0 0 0 0 0 0 0 0 0 0 0 0 0 0 0 0 127 0" result="hardAlpha"/><feOffset dy="1"/><feGaussianBlur stdDeviation="1"/><feComposite in2="hardAlpha" operator="out"/><feColorMatrix values="0 0 0 0 0 0 0 0 0 0.76 0 0 0 0 1 0 0 0 0.7 0"/><feBlend in2="BackgroundImageFix" result="effect1_dropShadow_60_1627"/><feBlend in="SourceGraphic" in2="effect1_dropShadow_60_1627" result="shape"/></filter></defs></svg>
